Badges/Community/GitHub/link-github-repository-short.svg

<svg width="121" height="32" viewBox="0 0 121 32" fill="none" xmlns="http://www.w3.org/2000/svg">
<g filter="url(#filter0_i_26_106)">
<rect width="121" height="31.6038" rx="4" fill="black"/>
<path d="M18 8C13.58 8 10 11.582 10 16C10 19.5353 12.292 22.5333 15.47 23.59C15.87 23.6653 16.0167 23.418 16.0167 23.2053C16.0167 23.0153 16.01 22.512 16.0067 21.8453C13.7813 22.328 13.312 20.772 13.312 20.772C12.948 19.8487 12.422 19.602 12.422 19.602C11.6973 19.106 12.478 19.116 12.478 19.116C13.2813 19.172 13.7033 19.94 13.7033 19.94C14.4167 21.1633 15.576 20.81 16.0333 20.6053C16.1053 20.088 16.3113 19.7353 16.54 19.5353C14.7633 19.3353 12.896 18.6473 12.896 15.582C12.896 14.7087 13.206 13.9953 13.7193 13.4353C13.6293 13.2333 13.3593 12.42 13.7893 11.318C13.7893 11.318 14.4593 11.1033 15.9893 12.138C16.6293 11.96 17.3093 11.872 17.9893 11.868C18.6693 11.872 19.3493 11.96 19.9893 12.138C21.5093 11.1033 22.1793 11.318 22.1793 11.318C22.6093 12.42 22.3393 13.2333 22.2593 13.4353C22.7693 13.9953 23.0793 14.7087 23.0793 15.582C23.0793 18.6553 21.2093 19.332 19.4293 19.5287C19.7093 19.7687 19.9693 20.2593 19.9693 21.0087C19.9693 22.0793 19.9593 22.9393 19.9593 23.1993C19.9593 23.4093 20.0993 23.6593 20.5093 23.5793C23.71 22.53 26 19.53 26 16C26 11.582 22.418 8 18 8Z" fill="white"/>
<path d="M39.225 16.8099L40.963 19.8019H39.225L37.553 16.8979H36.31V19.8019H34.814V12.1019H37.685C39.379 12.1019 40.556 12.7509 40.556 14.4779C40.556 15.5999 40.017 16.2709 39.225 16.6119V16.8099ZM37.905 13.5539H36.31V15.4459H37.905C38.609 15.4459 39.038 15.1379 39.038 14.4779C39.038 13.8179 38.609 13.5539 37.905 13.5539ZM44.3157 19.9119C42.5447 19.9119 41.3897 18.7129 41.3897 16.9309C41.3897 15.1489 42.5447 13.9279 44.1947 13.9279C45.9767 13.9279 46.8677 15.1489 46.8677 16.8539V17.3489H42.8087C42.9297 18.2509 43.5017 18.6359 44.3157 18.6359C44.9097 18.6359 45.3607 18.4489 45.8117 18.0749L46.6587 19.0869C46.0427 19.6589 45.1627 19.9119 44.3157 19.9119ZM44.1947 15.1159C43.4907 15.1159 43.0287 15.4789 42.8527 16.2049H45.4707C45.3827 15.5119 44.9207 15.1159 44.1947 15.1159ZM49.3791 21.8919H47.9711V14.0379H49.3791V14.8519L49.5551 14.9179C49.8081 14.4009 50.3141 13.9279 51.1721 13.9279C52.5361 13.9279 53.5921 14.9069 53.5921 16.7989C53.5921 18.6909 52.5361 19.9119 50.8421 19.9119C50.2701 19.9119 49.7861 19.7579 49.3791 19.5599V21.8919ZM50.7321 18.6139C51.5681 18.6139 52.1621 17.9539 52.1621 16.8099C52.1621 15.7099 51.5681 15.2259 50.7871 15.2259C50.1711 15.2259 49.6761 15.5229 49.3791 15.9959V18.2069C49.6651 18.4159 50.1711 18.6139 50.7321 18.6139ZM57.2797 19.9119C55.5307 19.9119 54.4307 18.7019 54.4307 16.9199C54.4307 15.1379 55.5307 13.9279 57.2797 13.9279C59.0287 13.9279 60.1287 15.1379 60.1287 16.9199C60.1287 18.7019 59.0287 19.9119 57.2797 19.9119ZM57.2907 18.6139C58.1267 18.6139 58.6987 17.9979 58.6987 16.9199C58.6987 15.8419 58.1267 15.2259 57.2907 15.2259C56.4547 15.2259 55.8607 15.8419 55.8607 16.9199C55.8607 17.9979 56.4547 18.6139 57.2907 18.6139ZM63.1965 19.9119C62.2065 19.9119 61.4585 19.5599 60.8095 19.0319L61.5575 18.0199C62.0305 18.4269 62.5695 18.7019 63.1965 18.7019C63.7905 18.7019 64.1095 18.5039 64.1095 18.1409C64.1095 17.7779 63.8455 17.6679 63.4055 17.5799L62.6685 17.4259C61.6675 17.2169 61.0735 16.7219 61.0735 15.7759C61.0735 14.6319 61.8985 13.9279 63.2295 13.9279C64.0655 13.9279 64.8245 14.1809 65.4185 14.7199L64.6375 15.6879C64.2085 15.3359 63.7465 15.1379 63.2075 15.1379C62.8005 15.1379 62.4375 15.2919 62.4375 15.6219C62.4375 15.8859 62.6135 16.0619 63.1745 16.1829L63.9885 16.3589C64.8575 16.5459 65.5065 16.9969 65.5065 17.9539C65.5065 19.1859 64.5935 19.9119 63.1965 19.9119ZM68.0068 13.2019H66.5328V11.7279H68.0068V13.2019ZM67.9738 19.8019H66.5658V14.0379H67.9738V19.8019ZM72.0523 18.6139C72.3823 18.6139 72.6353 18.5699 72.9323 18.4929V19.7359C72.5913 19.8459 72.2503 19.9119 71.8323 19.9119C70.5343 19.9119 69.7753 19.1749 69.7753 17.7669V15.2479H68.8293V14.0379H69.7753V12.5419H71.1833V14.0379H72.8113V15.2479H71.1833V17.7449C71.1833 18.3279 71.5353 18.6139 72.0523 18.6139ZM76.2719 19.9119C74.5229 19.9119 73.4229 18.7019 73.4229 16.9199C73.4229 15.1379 74.5229 13.9279 76.2719 13.9279C78.0209 13.9279 79.1209 15.1379 79.1209 16.9199C79.1209 18.7019 78.0209 19.9119 76.2719 19.9119ZM76.2829 18.6139C77.1189 18.6139 77.6909 17.9979 77.6909 16.9199C77.6909 15.8419 77.1189 15.2259 76.2829 15.2259C75.4469 15.2259 74.8529 15.8419 74.8529 16.9199C74.8529 17.9979 75.4469 18.6139 76.2829 18.6139ZM81.6701 19.8019H80.2621V14.0379H81.6701V14.8519L81.8461 14.9179C82.1651 14.2909 82.6931 13.9279 83.3751 13.9279C83.5401 13.9279 83.7161 13.9499 83.8701 13.9829V15.4019C83.6501 15.3249 83.3751 15.2699 83.0231 15.2699C82.4181 15.2699 81.9121 15.6439 81.6701 16.1499V19.8019ZM85.7835 22.0019C85.3875 22.0019 85.0465 21.9139 84.7825 21.8259V20.5389C85.1345 20.6489 85.3875 20.7039 85.7285 20.7039C86.2015 20.7039 86.4765 20.4619 86.6525 20.0219L86.7405 19.8019H86.5095L84.2765 14.0379H85.8495L87.2245 17.8659H87.4005L88.7425 14.0379H90.3045L88.0935 19.9779C87.5215 21.5069 86.8065 22.0019 85.7835 22.0019Z" fill="white"/>
<path d="M104.625 10.9894C104.781 10.9894 104.914 11.0441 105.023 11.1535C105.133 11.2628 105.188 11.3957 105.188 11.5519C105.188 11.7082 105.133 11.841 105.023 11.9503C104.914 12.0597 104.781 12.1144 104.625 12.1144H101.062V19.9894H108.938V16.4269C108.938 16.2707 108.992 16.1378 109.102 16.0285C109.211 15.9191 109.344 15.8644 109.5 15.8644C109.656 15.8644 109.789 15.9191 109.898 16.0285C110.008 16.1378 110.062 16.2707 110.062 16.4269V20.1769C110.062 20.3449 110.02 20.5011 109.934 20.6457C109.852 20.7902 109.738 20.9035 109.594 20.9855C109.449 21.0714 109.293 21.1144 109.125 21.1144H100.875C100.707 21.1144 100.551 21.0714 100.406 20.9855C100.262 20.9035 100.146 20.7902 100.061 20.6457C99.9785 20.5011 99.9375 20.3449 99.9375 20.1769V11.9269C99.9375 11.7589 99.9785 11.6027 100.061 11.4582C100.146 11.3136 100.262 11.2003 100.406 11.1183C100.551 11.0324 100.707 10.9894 100.875 10.9894H104.625ZM109.5 10.9894C109.656 10.9894 109.789 11.0441 109.898 11.1535C110.008 11.2628 110.062 11.3957 110.062 11.5519V13.8019C110.062 13.9582 110.008 14.091 109.898 14.2003C109.789 14.3097 109.656 14.3644 109.5 14.3644C109.344 14.3644 109.211 14.3097 109.102 14.2003C108.992 14.091 108.938 13.9582 108.938 13.8019V12.9113L105.398 16.4503C105.289 16.5597 105.156 16.6144 105 16.6144C104.844 16.6144 104.711 16.5597 104.602 16.4503C104.492 16.341 104.438 16.2082 104.438 16.0519C104.438 15.8957 104.492 15.7628 104.602 15.6535L108.141 12.1144H107.25C107.094 12.1144 106.961 12.0597 106.852 11.9503C106.742 11.841 106.688 11.7082 106.688 11.5519C106.688 11.3957 106.742 11.2628 106.852 11.1535C106.961 11.0441 107.094 10.9894 107.25 10.9894H109.5Z" fill="white"/>
</g>
<defs>
<filter id="filter0_i_26_106" x="0" y="-2" width="121" height="33.6038" filterUnits="userSpaceOnUse" color-interpolation-filters="sRGB">
<feFlood flood-opacity="0" result="BackgroundImageFix"/>
<feBlend mode="normal" in="SourceGraphic" in2="BackgroundImageFix" result="shape"/>
<feColorMatrix in="SourceAlpha" type="matrix" values="0 0 0 0 0 0 0 0 0 0 0 0 0 0 0 0 0 0 127 0" result="hardAlpha"/>
<feOffset dy="-2"/>
<feGaussianBlur stdDeviation="1.65"/>
<feComposite in2="hardAlpha" operator="arithmetic" k2="-1" k3="1"/>
<feColorMatrix type="matrix" values="0 0 0 0 1 0 0 0 0 1 0 0 0 0 1 0 0 0 0.11 0"/>
<feBlend mode="normal" in2="shape" result="effect1_innerShadow_26_106"/>
</filter>
</defs>
</svg>

<svg xmlns="http://www.w3.org/2000/svg" width="121" height="32" fill="none">
  <g filter="url(#a)">
    <rect width="121" height="31.604" fill="#000" rx="4"/>
    <path fill="#fff" d="M18 8a8 8 0 0 0-8 8 8 8 0 0 0 5.47 7.59c.4.075.547-.172.547-.385 0-.19-.007-.693-.01-1.36-2.226.483-2.695-1.073-2.695-1.073-.364-.923-.89-1.17-.89-1.17-.725-.496.056-.486.056-.486.803.056 1.225.824 1.225.824.714 1.223 1.873.87 2.33.665.072-.517.278-.87.507-1.07-1.777-.2-3.644-.888-3.644-3.953 0-.873.31-1.587.823-2.147-.09-.202-.36-1.015.07-2.117 0 0 .67-.215 2.2.82a7.7 7.7 0 0 1 2-.27 7.7 7.7 0 0 1 2 .27c1.52-1.035 2.19-.82 2.19-.82.43 1.102.16 1.915.08 2.117a3.1 3.1 0 0 1 .82 2.147c0 3.073-1.87 3.75-3.65 3.947.28.24.54.73.54 1.48 0 1.07-.01 1.93-.01 2.19 0 .21.14.46.55.38A7.97 7.97 0 0 0 26 16a8 8 0 0 0-8-8m21.225 8.81 1.738 2.992h-1.738l-1.672-2.904H36.31v2.904h-1.496v-7.7h2.871c1.694 0 2.871.649 2.871 2.376 0 1.122-.539 1.793-1.331 2.134zm-1.32-3.256H36.31v1.892h1.595c.704 0 1.133-.308 1.133-.968s-.429-.924-1.133-.924m6.41 6.358c-1.77 0-2.925-1.2-2.925-2.981 0-1.782 1.155-3.003 2.805-3.003 1.782 0 2.673 1.22 2.673 2.926v.495h-4.06c.122.902.694 1.287 1.508 1.287.594 0 1.045-.187 1.496-.561l.847 1.012c-.616.572-1.496.825-2.343.825m-.12-4.796c-.704 0-1.166.363-1.342 1.089h2.618c-.088-.693-.55-1.09-1.276-1.09m5.184 6.776h-1.408v-7.854h1.408v.814l.176.066c.253-.517.76-.99 1.617-.99 1.364 0 2.42.979 2.42 2.87 0 1.893-1.056 3.114-2.75 3.114a3.3 3.3 0 0 1-1.463-.352zm1.353-3.278c.836 0 1.43-.66 1.43-1.804 0-1.1-.594-1.584-1.375-1.584-.616 0-1.11.297-1.408.77v2.21c.286.21.792.408 1.353.408m6.548 1.298c-1.75 0-2.85-1.21-2.85-2.992s1.1-2.992 2.85-2.992 2.849 1.21 2.849 2.992-1.1 2.992-2.85 2.992m.01-1.298c.837 0 1.409-.616 1.409-1.694s-.572-1.694-1.408-1.694-1.43.616-1.43 1.694.594 1.694 1.43 1.694m5.907 1.298c-.99 0-1.739-.352-2.388-.88l.749-1.012c.473.407 1.011.682 1.639.682.593 0 .912-.198.912-.561s-.263-.473-.703-.561l-.737-.154c-1.001-.21-1.595-.704-1.595-1.65 0-1.144.825-1.848 2.156-1.848.836 0 1.595.253 2.188.792l-.78.968c-.43-.352-.892-.55-1.43-.55-.407 0-.77.154-.77.484 0 .264.175.44.736.56l.815.177c.869.187 1.518.638 1.518 1.595 0 1.232-.913 1.958-2.31 1.958m4.81-6.71h-1.474v-1.474h1.474zm-.033 6.6h-1.408v-5.764h1.408zm4.078-1.188c.33 0 .583-.044.88-.121v1.243c-.34.11-.682.176-1.1.176-1.298 0-2.057-.737-2.057-2.145v-2.52h-.946v-1.21h.946v-1.495h1.408v1.496h1.628v1.21h-1.628v2.497c0 .583.352.869.87.869m4.22 1.298c-1.75 0-2.85-1.21-2.85-2.992s1.1-2.992 2.85-2.992 2.849 1.21 2.849 2.992-1.1 2.992-2.85 2.992m.01-1.298c.837 0 1.409-.616 1.409-1.694s-.572-1.694-1.408-1.694-1.43.616-1.43 1.694.594 1.694 1.43 1.694m5.388 1.188h-1.408v-5.764h1.408v.814l.176.066c.32-.627.847-.99 1.53-.99.164 0 .34.022.494.055v1.419a2.5 2.5 0 0 0-.847-.132c-.605 0-1.11.374-1.353.88zm4.114 2.2c-.397 0-.738-.088-1.002-.176v-1.287c.353.11.606.165.947.165.472 0 .748-.242.924-.682l.087-.22h-.23l-2.234-5.764h1.574l1.375 3.828h.175l1.343-3.828h1.562l-2.212 5.94c-.572 1.529-1.287 2.024-2.31 2.024m18.84-11.011q.234 0 .398.163a.54.54 0 0 1 .165.399.54.54 0 0 1-.165.398.54.54 0 0 1-.398.164h-3.563v7.875h7.876v-3.562a.54.54 0 0 1 .164-.398.54.54 0 0 1 .398-.165q.234 0 .398.165a.54.54 0 0 1 .164.398v3.75a.9.9 0 0 1-.128.469.9.9 0 0 1-.34.34.9.9 0 0 1-.469.128h-8.25a.9.9 0 0 1-.469-.129.9.9 0 0 1-.345-.34.93.93 0 0 1-.124-.468v-8.25a.93.93 0 0 1 .124-.469.9.9 0 0 1 .345-.34.9.9 0 0 1 .469-.129zm4.875 0q.234 0 .398.163a.54.54 0 0 1 .164.399v2.25a.54.54 0 0 1-.164.398.54.54 0 0 1-.398.164.54.54 0 0 1-.398-.164.54.54 0 0 1-.164-.398v-.89l-3.54 3.538a.54.54 0 0 1-.398.164.54.54 0 0 1-.398-.164.54.54 0 0 1-.164-.398.54.54 0 0 1 .164-.399l3.539-3.539h-.891a.54.54 0 0 1-.398-.164.54.54 0 0 1-.164-.398.54.54 0 0 1 .164-.399.54.54 0 0 1 .398-.164z"/>
  </g>
  <defs>
    <filter id="a" width="121" height="33.604" x="0" y="-2" color-interpolation-filters="sRGB" filterUnits="userSpaceOnUse">
      <feFlood flood-opacity="0" result="BackgroundImageFix"/>
      <feBlend in="SourceGraphic" in2="BackgroundImageFix" result="shape"/>
      <feColorMatrix in="SourceAlpha" result="hardAlpha" values="0 0 0 0 0 0 0 0 0 0 0 0 0 0 0 0 0 0 127 0"/>
      <feOffset dy="-2"/>
      <feGaussianBlur stdDeviation="1.65"/>
      <feComposite in2="hardAlpha" k2="-1" k3="1" operator="arithmetic"/>
      <feColorMatrix values="0 0 0 0 1 0 0 0 0 1 0 0 0 0 1 0 0 0 0.11 0"/>
      <feBlend in2="shape" result="effect1_innerShadow_26_106"/>
    </filter>
  </defs>
</svg>
